X:269
T:Braes O'Tullymet, The
R:STRATHSPEY
M:4/4
L:1/8
Q:126
K:Am
B |:\
"Am" A<e e>d      e>d e<g  | "G"  B<G d>G      e>Gd>B    |\
"Am" A<e e>d      e>d e<a  | "Em" g>ed>B "Am"  A/A/A B2 :|!
\
"Am" a>e a<c'     a>e a<c' | "G"  g>d g<b      g>d g<b   |\
"Am" a>e a<c'     a>e a<c' | "Em" g>ed>B "Am"  A/A/A A2  |!
"Am" a>e a<c'     a>e a<c' | "G"  g>d g<b      g>d g<b   |\
"Am" a<e e>^f "G" g>ab>a   | "Em" g>ed>B "Am"  A2        |]
